img/svg/icon-font/location.svg

<svg width="20" height="20" viewBox="0 0 20 20" fill="none" xmlns="http://www.w3.org/2000/svg">
<g clip-path="url(#clip0)">
<path d="M19.1422 11.2306C18.7116 11.2306 18.3625 11.5797 18.3625 12.0103V16.8835C18.3625 17.7435 17.663 18.443 16.803 18.443H3.07984C2.22001 18.443 1.52039 17.7435 1.52039 16.8835V16.8055C1.52039 15.9457 2.22001 15.2461 3.07984 15.2461H4.67393C5.10469 15.2461 5.45365 14.8971 5.45365 14.4664V6.70819H6.9005C7.3311 6.70819 7.68022 6.35907 7.68022 5.92847C7.68022 5.49771 7.3311 5.14874 6.9005 5.14874H5.45365V3.19943C5.45365 2.76868 5.10469 2.41971 4.67393 2.41971H3.07984C1.36002 2.41971 -0.0390625 3.81879 -0.0390625 5.53861V16.8835C-0.0390625 18.6033 1.36002 20.0024 3.07984 20.0024H16.803C18.5228 20.0024 19.9219 18.6033 19.9219 16.8835V12.0103C19.9219 11.5797 19.5729 11.2306 19.1422 11.2306ZM1.52039 5.53861C1.52039 4.67862 2.22001 3.97916 3.07984 3.97916H3.8942V13.6867H3.07984C2.51221 13.6867 1.97937 13.8392 1.52039 14.1052V5.53861ZM14.5418 7.83124C13.252 7.83124 12.2026 6.78189 12.2026 5.49207C12.2026 4.20224 13.252 3.15289 14.5418 3.15289C15.8316 3.15289 16.881 4.20224 16.881 5.49207C16.881 5.92267 16.532 6.27179 16.1013 6.27179C15.6707 6.27179 15.3215 5.92267 15.3215 5.49207C15.3215 5.06207 14.9718 4.71234 14.5418 4.71234C14.112 4.71234 13.7621 5.06207 13.7621 5.49207C13.7621 5.92206 14.112 6.27179 14.5418 6.27179C14.9726 6.27179 15.3215 6.62091 15.3215 7.05152C15.3215 7.48212 14.9726 7.83124 14.5418 7.83124ZM13.7726 12.9727C13.9154 13.1988 14.1643 13.3359 14.4316 13.3359H14.7301C14.9974 13.3359 15.2463 13.1987 15.3891 12.9727C15.9209 12.1313 16.595 11.3931 17.2469 10.6793C18.5801 9.21918 19.9587 7.70948 19.961 5.41287C19.9575 2.44977 17.544 0.039032 14.5809 0.039032C11.6176 0.039032 9.20412 2.44977 9.20076 5.41455C9.2029 7.70948 10.5815 9.21918 11.9148 10.6793C12.5667 11.3931 13.2407 12.1313 13.7726 12.9727ZM14.5809 1.59848C16.6852 1.59848 18.3991 3.31036 18.4015 5.41303C18.3998 7.10401 17.3319 8.27359 16.0953 9.62781C15.5851 10.1866 15.062 10.7594 14.5809 11.4016C14.0998 10.7594 13.5767 10.1866 13.0664 9.62781C11.8297 8.27359 10.7619 7.10401 10.7602 5.41471C10.7627 3.31036 12.4765 1.59848 14.5809 1.59848Z" fill="#4C51CB"/>
</g>
<defs>
<clipPath id="clip0">
<rect width="20" height="20" fill="white"/>
</clipPath>
</defs>
</svg>

<svg width="20" height="20" fill="none" xmlns="http://www.w3.org/2000/svg"><g clip-path="url(#clip0)"><path d="M19.142 11.23a.78.78 0 00-.78.78v4.874a1.56 1.56 0 01-1.559 1.559H3.08c-.86 0-1.56-.7-1.56-1.56v-.078c0-.86.7-1.559 1.56-1.559h1.594a.78.78 0 00.78-.78V6.708H6.9a.78.78 0 000-1.56H5.454V3.2a.78.78 0 00-.78-.78H3.08c-1.72 0-3.12 1.4-3.12 3.12v11.345c0 1.72 1.4 3.118 3.12 3.118h13.723a3.122 3.122 0 003.119-3.118V12.01a.78.78 0 00-.78-.78zM1.52 5.54c0-.86.7-1.56 1.56-1.56h.814v9.708H3.08c-.568 0-1.1.152-1.56.418V5.54zm13.022 2.29c-1.29 0-2.34-1.05-2.34-2.339 0-1.29 1.05-2.34 2.34-2.34 1.29 0 2.339 1.05 2.339 2.34a.78.78 0 11-1.56 0 .78.78 0 10-.78.78.78.78 0 110 1.56zm-.77 5.142a.78.78 0 00.66.363h.298a.78.78 0 00.66-.363c.53-.842 1.205-1.58 1.857-2.294 1.333-1.46 2.712-2.97 2.714-5.266a5.388 5.388 0 00-5.38-5.374A5.388 5.388 0 009.2 5.415c.002 2.294 1.38 3.804 2.714 5.264.652.714 1.326 1.452 1.858 2.294zm.809-11.375a3.825 3.825 0 013.82 3.815c-.001 1.691-1.07 2.86-2.306 4.215-.51.559-1.033 1.131-1.514 1.774-.481-.643-1.004-1.215-1.515-1.774-1.236-1.354-2.304-2.524-2.306-4.213a3.826 3.826 0 013.82-3.817z" fill="#4C51CB"/></g><defs><clipPath id="clip0"><path fill="#fff" d="M0 0h20v20H0z"/></clipPath></defs></svg>
